X: 338
T: Kentucky Winder
B: canberra pickers and fiddlers
B: tunes
M:C|
L:1/8
Q: 1/4=100
K:G
V:1 
+slide+BAB2 AGEG|AG2G G2Bd|edBG AGEG|AG2G G2G2| 
BAB2 AGEG|AG2G G2Bd|edBG AGEG|AG2G G2[G2c2]|
(B_B)=BB AGEG|AG2G G2Bd|edBG AGEG|[M:2/4]AG2G ||
[M:5/4]g4 ge[D3d3]g-|[M:C|] ga b2 a2g2|bged BABd|[M:3/4]ef e2d2|
[M:C|]efgf edBA|Bdef e2d2|BGBG DGEG|[M:2/4]AG2G|
[M:5/4]g3g ed [D3B3]g-|[M:C|]ga b2 a2g2|bged BABd|[M:3/4]ef e2d2|
[M:C|]efgf edBA|Bdef e2d2|BGBG DGEG|AG2G [G2B2][G2B2]||
% abcbook-tune_id 679ffa35ad52b449d884941f
% abcbook-tune_composer_id 
% abcbook-link-0 https://www.youtube.com/watch?v=qYK7BfY3EwY
% abcbook-link-title-0 Kentucky Winder
% abcbook-link-1 https://syntithenai.github.io/numerella2025/music/kentucky%20winder.mp3
% abcbook-boost 0
% abcbook-difficulty 0
% abcbook-tags old time tunes
% abcbook-tablature 
% abcbook-transpose 
% abcbook-tuning GDAE
% abcbook-lastupdated 1738713157857
% abcbook-src-url 
% abcbook-soundfonts 
% abcbook-repeats 1


